svgs/light/square-y.svg

<svg xmlns="http://www.w3.org/2000/svg" viewBox="0 0 448 512"><!-- Font Awesome Pro 6.0.0-alpha2 by @fontawesome - https://fontawesome.com License - https://fontawesome.com/license (Commercial License) --><path d="M384 32H64C28.654 32 0 60.654 0 96V416C0 451.346 28.654 480 64 480H384C419.346 480 448 451.346 448 416V96C448 60.654 419.346 32 384 32ZM416 416C416 433.645 401.645 448 384 448H64C46.355 448 32 433.645 32 416V96C32 78.355 46.355 64 64 64H384C401.645 64 416 78.355 416 96V416ZM323.859 133.594L224 250.062L124.141 133.594C118.406 126.906 108.297 126.156 101.594 131.844C94.875 137.594 94.094 147.719 99.859 154.406L208 280.561V368C208 376.844 215.156 384 224 384S240 376.844 240 368V280.561L348.141 154.406C353.906 147.719 353.125 137.594 346.406 131.844C339.734 126.156 329.625 126.906 323.859 133.594Z"/></svg>

<svg xmlns="http://www.w3.org/2000/svg" viewBox="0 0 448 512"><!--! Font Awesome Pro 6.0.0-alpha3 by @fontawesome - https://fontawesome.com License - https://fontawesome.com/license (Commercial License) --><path d="M384 32H64C28.65 32 0 60.65 0 96v320c0 35.35 28.65 64 64 64h320c35.35 0 64-28.65 64-64V96C448 60.65 419.3 32 384 32zM416 416c0 17.64-14.36 32-32 32H64c-17.64 0-32-14.36-32-32V96c0-17.64 14.36-32 32-32h320c17.64 0 32 14.36 32 32V416zM323.9 133.6L224 250.1L124.1 133.6C118.4 126.9 108.3 126.2 101.6 131.8c-6.719 5.75-7.5 15.88-1.734 22.56L208 280.6V368c0 8.844 7.156 16 16 16s16-7.156 16-16V280.6l108.1-126.2c5.766-6.688 4.984-16.81-1.734-22.56C339.7 126.2 329.6 126.9 323.9 133.6z"/></svg>
